public/avatar/shoe/39.svg

<svg xmlns:xlink="http://www.w3.org/1999/xlink" height="38.3" width="36.05" xmlns="http://www.w3.org/2000/svg"><use height="15.9" transform="translate(3.45 11.85)" width="27.95" xlink:href="#a"/><defs><g id="a"><path d="m-4.35-1.8 1.5-.25 2.25.6-2.95 5.4-2.75.9 1.95-6.65" fill="#306600" fill-rule="evenodd" transform="translate(20.35 3)"/><path d="M-1.2-1.05q-.5-.6-1.65-.6l-2.1.4" fill="none" stroke="#57ba00" stroke-linecap="round" stroke-linejoin="round" transform="translate(20.35 3)"/><path d="M-3.8-2.7-5 3.4l4.2-5.95 4.75.5.9-.5q.6 0 1.2.7L7.4 1.8q.5 1.2-.2 6.6l-1 .5-.5-2.05Q2.1 10.5.1 11.4l-6.85 1.2q-3.5.65-8 0-2.25-.35-5.6-2.95l.5-1.05q4.3 1.25 5.6.7.95-.4 4.2-3.7 3.2-3.25 3.45-3.95L-5-3l1.2.3" fill-rule="evenodd" transform="translate(20.35 3)"/><path d="m-6.8.6 3.4.35q1.85.5 2.45 1.25.6.7-.45 3.5-1.1 2.85-2.4 3.4-1.25.65-4.4-.3-3.05-1-3.45-1.8-.3-.75 1.85-3.45Q-7.7.75-6.8.6" fill="#91989e" fill-rule="evenodd" transform="translate(20.35 3)"/><path d="m-7.35 2.3 2.15.05q1.15.6 1.3 1.4Q-3.6 6.4-5.3 7l-2.25-.2q-1.4-.45-1.65-1.05-.2-.45.65-1.8l1.2-1.65" fill-rule="evenodd" transform="translate(20.35 3)"/><path d="m-8.75 3.1 3.45 1.4-.8.6-3.45-.8.8-1.2" fill="#91989e" fill-rule="evenodd" transform="translate(20.35 3)"/><path d="M-5.85.35Q-6.75.5-7.3.9q-2.1 1.6-2.65 2.45-1.6 2.4-1.8 3.35l.3 1" fill="none" stroke="#676c70" stroke-linecap="round" stroke-linejoin="round" transform="translate(20.35 3)"/><path d="m-7.8 3.45 1.6.6m1.9-2.6L-6.15.8m-1.9 6.1-1.2-.4" fill="none" stroke="#dbe5ed" stroke-linecap="round" stroke-linejoin="round" transform="translate(20.35 3)"/></g></defs></svg>

<?xml version="1.0" encoding="UTF-8" standalone="no"?>
<svg xmlns:xlink="http://www.w3.org/1999/xlink" height="38.3px" width="36.05px" xmlns="http://www.w3.org/2000/svg">
  <g transform="matrix(1.0, 0.0, 0.0, 1.0, 23.8, 14.85)">
    <use height="15.9" transform="matrix(1.0, 0.0, 0.0, 1.0, -20.35, -3.0)" width="27.95" xlink:href="#shape0"/>
  </g>
  <defs>
    <g id="shape0" transform="matrix(1.0, 0.0, 0.0, 1.0, 20.35, 3.0)">
      <path d="M-4.35 -1.8 L-2.85 -2.05 -0.6 -1.45 -3.55 3.95 -6.3 4.85 -4.35 -1.8" fill="#306600" fill-rule="evenodd" stroke="none"/>
      <path d="M-1.2 -1.05 Q-1.7 -1.65 -2.85 -1.65 L-4.95 -1.25" fill="none" stroke="#57ba00" stroke-linecap="round" stroke-linejoin="round" stroke-width="1.0"/>
      <path d="M-3.8 -2.7 L-5.0 3.4 -0.8 -2.55 3.95 -2.05 4.85 -2.55 Q5.45 -2.55 6.05 -1.85 L7.4 1.8 Q7.9 3.0 7.2 8.4 L6.2 8.9 5.7 6.85 Q2.1 10.5 0.1 11.4 L-6.75 12.6 Q-10.25 13.25 -14.75 12.6 -17.0 12.25 -20.35 9.65 L-19.85 8.6 Q-15.55 9.85 -14.25 9.3 -13.3 8.9 -10.05 5.6 -6.85 2.35 -6.6 1.65 L-5.0 -3.0 -3.8 -2.7" fill="#000000" fill-rule="evenodd" stroke="none"/>
      <path d="M-6.8 0.6 L-3.4 0.95 Q-1.55 1.45 -0.95 2.2 -0.35 2.9 -1.4 5.7 -2.5 8.55 -3.8 9.1 -5.05 9.75 -8.2 8.8 -11.25 7.8 -11.65 7.0 -11.95 6.25 -9.8 3.55 -7.7 0.75 -6.8 0.6" fill="#91989e" fill-rule="evenodd" stroke="none"/>
      <path d="M-7.35 2.3 L-5.2 2.35 Q-4.05 2.95 -3.9 3.75 -3.6 6.4 -5.3 7.0 L-7.55 6.8 Q-8.95 6.35 -9.2 5.75 -9.4 5.3 -8.55 3.95 L-7.35 2.3" fill="#000000" fill-rule="evenodd" stroke="none"/>
      <path d="M-8.75 3.1 L-5.3 4.5 -6.1 5.1 -9.55 4.3 -8.75 3.1" fill="#91989e" fill-rule="evenodd" stroke="none"/>
      <path d="M-5.85 0.35 Q-6.75 0.5 -7.3 0.9 -9.4 2.5 -9.95 3.35 -11.55 5.75 -11.75 6.7 L-11.45 7.7" fill="none" stroke="#676c70" stroke-linecap="round" stroke-linejoin="round" stroke-width="1.0"/>
      <path d="M-7.8 3.45 L-6.2 4.05" fill="none" stroke="#dbe5ed" stroke-linecap="round" stroke-linejoin="round" stroke-width="1.0"/>
      <path d="M-4.3 1.45 L-6.15 0.8" fill="none" stroke="#dbe5ed" stroke-linecap="round" stroke-linejoin="round" stroke-width="1.0"/>
      <path d="M-8.05 6.9 L-9.25 6.5" fill="none" stroke="#dbe5ed" stroke-linecap="round" stroke-linejoin="round" stroke-width="1.0"/>
    </g>
  </defs>
</svg>
